X: 34284
T: Repeal Of The Union, The
R: reel
M: 4/4
K: Dmixolydian
AD D2 A3G|E2cE dEcB|AD D2 A3G|E2cE ED D2|
ADED A3G|E2cE dEcB|AD D2 A3G|E2cE ED D2||
Adde fdec|ABcA dBcB|Adde fdcA|GEcE EDD2|
Adde fdec|ABcd eg g2|afge fdcA|GEcE EDD2||

